!!!OTL: 330. Rheinweinlied.
!!!COM: G. Rabe
!!!ARE: Europa, Mitteleuropa, Deutschland
!!!SCT: B0330
!!!TXL: @@DE
!!!YEM: Copyright 1995, estate of Helmut Schaffrath.
**kern	**text
*ICvox	*
*Ivox	*
*clefG2	*
!! Mixed meters:  3/4; 2/4
*M3/4	*
*k[f#]	*
*G:	*
=1	=1
!LO:TX:a:t=Kräftig.	!
{4.g	Brü-
8d	-der,
8d	das
8d	iſt
=2	=2
8.b	deut-
16a	-ſcher
4g	Wein!
4r}	.
=3	=3
{4.a	Brü-
8d	-der,
8d	das
8d	iſt
=4	=4
8.cc	deut-
16b	-ſcher
4a	Wein!
4r}	.
=5	=5
{4.d	Da-
8b	-rum
8b	iſt
8b	er
=6	=6
8.a	klar
16b	und
4cc	ſtil-
4d}	-le,
=7	=7
{4.d	dar-
8cc	-um
8cc	hat
8cc	er
=8	=8
8.b	Kraft
16cc	und
4dd	Fül-
4g}	-le,
=9	=9
{4.ee	da-
8cc	-rum
8g	ſchenkt
8ee	ihn
=10	=10
8.dd	fröh-
16b	-lich
2gg;	ein!
=11||	=11||
*M2/4	*
!LO:TX:a:t=Lebhafter.	!
{8.gg	Brü-
16dd	-der,
8b	das
8cc	iſt
=12	=12
8.ee	deut-
16dd	-ſcher
4dd}	Wein,
=13	=13
{8.ee	Brü-
16dd	-der,
8f#	das
8a	iſt
=14	=14
*M4/4	*
*met(c)	*
2.ee	deut-
4dd	-ſcher
=15	=15
1e;}	Wein!
==	==
!!!AGN: Trink - Lied
!!!GTL: Wein- und Trinklieder
!!!ONB: ESAC (Essen Associative Code) Database: BOEHME
!!!AMT: irregular
!!!AIN: vox
!!!EED: Helmut Schaffrath
!!!EEV: 1.0
!!@@COMMENT:"Gedicht von Aloys Schreiber 1816. Ʒuerſt in deſſen Cornelia" 1817. S. 101, dann in
!!ſeinen Gedichten 1817. Hier mit Weglaſſung der 3. 5. und 7. Strophe. Eine nicht gelungene Mel.
!!von Silcher im Liederb. für Hochſchulen 1823 und in ſeinem Kommersbuch. Die neuere Weiſe
!!hier aus Haſe's "Liederb. des deutſchen Volkes" 1883, Nr. 771."
!!@@END:
!!!Text: A. Schreiber
!!!URL-scan: https://archive.org/details/BoehmeVtLieder1895/page/n277/mode/2up
!!!ENC: Anna Maria Matuszewska
!!!EEV: 2024/04/07
*-	*-
